icons/save-as-32.svg

<svg id="icons" xmlns="http://www.w3.org/2000/svg" viewBox="0 0 32 32"><defs><style>.cls-1{fill:none;}</style></defs><rect class="cls-1" width="32" height="32"/><path d="M30.559,14.13928,28.79663,12.377a1.20328,1.20328,0,0,0-1.7262-.037c-5.91418,5.91418-6.21752,6.21759-12.54351,12.54364l-2.34259,5.46527a.30641.30641,0,0,0,.40234.40234L18.052,28.40869,28.79486,17.66461l-.0003-.00152L30.596,15.86548A1.20328,1.20328,0,0,0,30.559,14.13928ZM13.78674,29.14911l1.40265-3.2738,1.87116,1.87054Zm4.101-1.99017-2.1117-2.111,9.93518-9.93481,2.11127,2.111Zm12.001-12.001-1.35919,1.35919-2.11127-2.111,1.35913-1.35907a.16315.16315,0,0,1,.1211-.0542.28512.28512,0,0,1,.19238.09228l1.76074,1.76123C29.8692,14.864,30.02252,15.02509,29.88873,15.1579ZM28,19.87561l1-.99988V28a1.00126,1.00126,0,0,1-1,1H18.87451l1.00012-1H23V24.875l1-.99988V28h4ZM9,18H19.99658l.4408-.4408L20.99652,17H8V28H4V4H8v8a1.00122,1.00122,0,0,0,1,1H23a1.00122,1.00122,0,0,0,1-1V4l4,2.999v4.004a2.21756,2.21756,0,0,1,1,.29413V7a1.00378,1.00378,0,0,0-.40039-.80078l-4-3A1.0048,1.0048,0,0,0,24,3H4A1.00063,1.00063,0,0,0,3,4V28a1.00122,1.00122,0,0,0,1,1h7.67462l.42877-1H9ZM19,4h2V8H19ZM9,4h9V9h4V4h1v8H9Z"/></svg>

<svg xmlns="http://www.w3.org/2000/svg" viewBox="0 0 32 32"><path fill="none" d="M0 0h32v32H0z"/><path d="M30.559 14.14l-1.762-1.763a1.203 1.203 0 0 0-1.727-.037L14.527 24.884l-2.343 5.465a.306.306 0 0 0 .403.402l5.465-2.342 10.743-10.744v-.002l1.801-1.798a1.203 1.203 0 0 0-.037-1.726zM13.787 29.15l1.402-3.275 1.872 1.87zm4.1-1.991l-2.111-2.111 9.935-9.935 2.111 2.111zM29.89 15.158l-1.36 1.36-2.11-2.112 1.358-1.359a.163.163 0 0 1 .122-.054.285.285 0 0 1 .192.092l1.76 1.761c.018.018.172.18.038.312zM28 19.876l1-1V28a1.001 1.001 0 0 1-1 1h-9.125l1-1H23v-3.125l1-1V28h4zM9 18h10.997l.44-.44.56-.56H8v11H4V4h4v8a1.001 1.001 0 0 0 1 1h14a1.001 1.001 0 0 0 1-1V4l4 2.999v4.004a2.218 2.218 0 0 1 1 .294V7a1.004 1.004 0 0 0-.4-.8l-4-3A1.005 1.005 0 0 0 24 3H4a1 1 0 0 0-1 1v24a1.001 1.001 0 0 0 1 1h7.675l.428-1H9zM19 4h2v4h-2zM9 4h9v5h4V4h1v8H9z"/></svg>
